X:1
T:Title
%%score { ( 1 3 ) | ( 2 4 ) }
L:1/8
Q:1/4=100
M:4/4
K:Ab
V:1 treble nm="Grand Piano"
V:3 treble 
V:2 bass 
V:4 bass 
V:1
 [Ec]2 [CE]2 [DB]2 [CA]2 | [DA]>G G>_G =G4 | d2 G2 c2 B2 | [CB]>[EA] [EG]>F E4 | %4
w: Robert~Harkness * * *||||
 [Ec]2 [CE]2 [DB]2 [CA]2 | [EG]>[=DF] G>A B4 | B2 c2 =d2 B2 | [Ge]>[Ge] [Ae]>[=Ae] [Be]4 | %8
w: ||||
 c2 e2 d2 c2 | c>B [=DF]>[Dc] z2 A,2 | B2 d2 c2 B2 | [CB]>[EA] [EG]>F E4 | %12
w: ||||
 [Ee]>[Ed] [Ec]>[EB] [EA]>[=EG] F2 | [Fd]>[Fc] [FB]>[FA] G>F z D | A>G A>[GB] c>d e>f | %15
w: |||
 [EAc]2 .[DGB]2 [CEA]4 |] %16
w: |
V:2
 [A,,A,]2 [A,,A,]2 [A,,E,]2 [A,,E,]2 | [B,,E,]>[E,B,D] [E,B,D]>[E,=A,D] [E,B,D]4 | %2
 [E,G,E]2 [E,B,D]2 [E,A,E]2 [E,G,D]2 | [A,,E,]>[C,A,] [D,A,]>[F,A,D] [A,C]4 | %4
 [A,,A,]2 [A,,A,]2 [A,,E,]2 [A,,E,]2 | [B,,B,]>[B,,B,][K:treble] [B,E]>[B,=DF] [B,EG]4 | %6
 [B,=DA]2 [B,EA]2 [B,FA]2 [B,DA]2 | [E,E]>[E,B,] [E,C]>[E,C] [E,D]4 | %8
 [A,EA]2 [A,CA]2 [A,FA]2 [A,EA]2 | [F,A,=D]>[F,A,D] [B,,A,]>[B,,A,] F,2 z2 | %10
 [E,G,E]2 [E,G,E]2 [E,A,E]2 [E,G,D]2 | [A,,E,]>[C,A,] [D,A,]>[F,A,D] [A,C]4 | %12
 [C,G,]>[B,,G,] [A,,A,]>[B,,G,] [C,A,]>[C,B,] [D,A,]2 | %13
 [B,,B,]>[C,=A,] [D,B,]>[=D,B,] [E,B,E]>[F,B,=D] .[G,B,]2 | %14
 [A,CE]>[B,DE] [A,CE]>[E,E][K:treble] [A,EA]>[B,EG] [CEA]>[DA] | E,2 z E A,,4 |] %16
V:3
 x8 | x8 | x8 | x8 | x8 | x8 | x8 | x8 | x8 | z4 [=DB]4 | x8 | x8 | x8 | z4 z2 E2 | x8 | x8 |] %16
V:4
 x8 | x8 | x8 | x8 | x8 | x2[K:treble] x6 | x8 | x8 | x8 | z4 B,,4 | x8 | x8 | x8 | x8 | %14
 x4[K:treble] x4 | z2 E,2 z4 |] %16

